!!!OTL: Die Cunst des Augenblicks.
!!!OTL-incipit: UND SO FINDEN WIR UNS WIEDER
!!!COM: Fr. Reichardt
!!!ARE: Europa, Mitteleuropa, Deutschland
!!!SCT: F0691
!!!TXL: @@DE
!!!YEM: Copyright 1995, estate of Helmut Schaffrath.
**kern	**text
*ICvox	*
*clefG2	*
*M4/4	*
*met(c)	*
*k[f#c#g#]	*
*A:	*
!LO:TX:a:t=Heiter.	!
!LO:TX:a:t=P:only the highest voice encoded:problem	!
{8c#	1._Und
8e	ſo
=1	=1
4.a	fin-
8e	-den
4.b/	wir
8e	uns
=2	=2
4cc#/	wie-
4a}	-der
{4.cc#/	in
8b/	dem
=3	=3
4b/	hei-
4b/	-tern
(>4b/	bun-
8cc#/)	.
8dd#/	-ten
=4	=4
2ee	Reihn,
4r}	.
{8e	und
8g#	es
=5	=5
4.b/	ſoll
8e	der
4.dd	Kranʒ
8cc#	der
=6	=6
8cc#q	.
4b/	Lie-
4b/}	-der
{4.ff#	friſch
8ee	und
=7	=7
8ee/L	grün
8aaJ	.
8cc#/L	ge-
8eeJ	.
(>4a	-floch-
8cc#q	.
8b/)	.
8a	-ten
=8	=8
2a	ſein.
4r}	.
==	==
!!!AGN: Geselligkeits  - Lied
!!!ONB: ESAC (Essen Associative Code) Database: FINK
!!!AMT: simple quadruple
!!!AIN: vox
!!!EED: Helmut Schaffrath
!!!EEV: 1.0
!!!RDF**kern: > = above
!!Text: Fr. Schiller
!!!GTL: Liedertafel- und Gesellschaftslieder
!!!source: Musikalischer Hausschatz der Deutschen. Eine Sammlung von über 1000 Liedern und Gesängen mit Singstimmen und Klavierbegleitung. Leipzig, Litterarisches Verlags-Haus.
!!!page: 463
!!!URL-scan: https://www.digitale-sammlungen.de/en/view/bsb11144622?page=415
!!!ENC: Anna Maria Matuszewska
!!!EEV: 2024/08/05
*-	*-
